X:1
T:Title
%%score { ( 1 3 ) | ( 2 4 ) }
L:1/8
M:4/4
K:E
V:1 treble nm="Grand Piano"
V:3 treble 
V:2 bass 
V:4 bass 
V:1
 z4 z2[Q:1/4=100] (3B,CE | G6 z2 | [Ac]B-[GB-][GB-] [EB-][EB]ee | B6 z2 | G6 z2 | G6 z2 | %6
 [Ac]B-[GB-][GB-] [EB-][EB]ee | G6 z2 |[M:3/4] E6 |[M:1/4] GB | %10
[M:4/4] e2- [Ge-]2 [Ge][Ac][GB][EG] | [Ac]B-[GB-][GB-] [EB-][EB]GB | %12
 c2- [EAc-]2 [EAc][EG^B][EAc][EAe] | B-[GB-][GB-][GB-] [EB]2 GB | e2- [Ge-]2 [Ae][Ac][GB][EG] | %15
 z G z2 z4 | G6 z2 |[M:3/4] E6 |] %18
V:2
 z8 | [E,B,E]2 [E,B,]2 [E,B,][E,^A,E][E,B,E][E,E] | [E,E][E,E][E,B,][E,B,] [E,G,][E,G,] z2 | %3
 [E,G,E]2 [E,G,]2 [E,G,][E,B,E][E,A,D][E,G,] | [E,B,E][E,B,][C,C][C,C] [E,B,]2 z2 | %5
 [E,B,E]2 [E,B,]2 [E,B,][E,^A,E][E,B,E][E,E] | [E,E][E,E][E,B,][E,B,] [E,G,][E,G,] z2 | %7
 C,2 C,2 C,A,,B,,B,, |[M:3/4] z G, A,A, G,2 |[M:1/4] z2 | %10
[M:4/4] [E,B,]2 [E,B,]2 [E,B,][E,E][E,E][E,B,] | [E,E][E,E][E,B,][E,B,] [E,G,][E,G,] z2 | %12
 A,,2 A,,2 A,,A,,A,,C, | [E,E][E,E][E,B,][E,B,] [E,G,]2 z2 | %14
 [E,B,]2 [E,B,]2 [E,C][E,E][E,E][E,B,] | [E,E][E,E][E,B,][E,B,] [E,G,][E,G,] z2 | %16
 C,2 C,2 C,A,,B,,B,, |[M:3/4] z2 A,A, G,2 |] %18
V:3
 x8 | z2 E2 E^EG[GB] | z G z2 z4 | z2 E2 EGFE | z EEE E2 (3B,CE | z2 E2 E^EG[GB] | z G z2 z4 | %7
 [CE]2 [CE]2 [CE][CEA][B,EG][A,DF] |[M:3/4] G,B, CC B,2 |[M:1/4] x2 |[M:4/4] G2 z2 z4 | z G z2 z4 | %12
 [EA]2 z2 z4 | .G2 z2 z4 | G2 z2 z4 | [Ac]B-[GB-][GB-] [EB-][EB] (3B,CE | %16
 [CE]2 [CE]2 [CE][CEA][B,EG][A,DF] |[M:3/4] G,2 CC B,2 |] %18
V:4
 x8 | x8 | x8 | x8 | x8 | x8 | x8 | x8 |[M:3/4] E,6 |[M:1/4] x2 |[M:4/4] x8 | x8 | x8 | x8 | x8 | %15
 x8 | x8 |[M:3/4] E,6 |] %18

